X: 31882
T: Peace And Plenty
R: strathspey
M: 4/4
K: Aminor
A>B|c2E2E2 D<E|G2 E<C D2 C<B,|(3:2:2A,2G, (3:2:2A,2B,(3:2:2C2E DC|C2B,4 A>B|
c2E2E2 D<E|G2 E<C B,2 C<B,|A,2G2B,2 CB,|B,2 A,4 A>B|
c2E2E2 D<E|G2 E<C D2 C<B,|A,2 A,/G,/A,/B,/ CE DC|C2 B,4 A>B|
c2E2E2 D<E|G2 E<C B,2 C<B,|A,2G2B,2 CB,|B,2 A,4 A,<B,|
C3 DE2 D>C|B,<(G G2)G2 E<G|AE A/B/c Bd cB|B2 A4 AB|
c>e (3dcB c2 E<F|G>D CA, B,/A,/G, A,<B,|A,2G2B,2 CB,|B,2 A,4 A,<B,|
C3 DE2 D>C|B,<(G G2)G2 E<G|A2E2B2E2|(3Bcd cBA2 AB|
c>e (3dcB c2 E<F|G>D CA, B,/A,/G, A,<B,|A,2G2B,2 CB,|B,2 A,4||

